X:1
T:Lord Ronald, My Son
M:3/4
L:1/4
K:F
 A| B A G| F/2D/2 D C| D G G| G2G/2-A/2| B A G| F/2D/2 D C| D G G|\
 G2 F/2F/2| B c d| f d d/2c/2| B c f| d2 d/2 c/4c/4| B3/2 A/2G/2 F/2|\
 D C C| D G G| G2||
